1-js/04-object-basics/01-object/object-user-props.svg

<?xml version="1.0" encoding="UTF-8"?>
<svg width="248px" height="215px" viewBox="0 0 248 215" version="1.1" xmlns="http://www.w3.org/2000/svg" xmlns:xlink="http://www.w3.org/1999/xlink">
    <!-- Generator: sketchtool 55.2 (78181) - https://sketchapp.com -->
    <title>object-user-props.svg</title>
    <desc>Created with sketchtool.</desc>
    <g id="combined" stroke="none" stroke-width="1" fill="none" fill-rule="evenodd">
        <g id="object-user-props.svg">
            <rect fill="#FFFFFF" x="0" y="0" width="248" height="215"></rect>
            <path d="M127.93675,143 L111.270083,163 L241.729917,163 L225.06325,143 L127.93675,143 Z" id="Rectangle-4-Copy" stroke="#D1C4B1" stroke-width="4" fill="#D1C4B1" opacity="0.5"></path>
            <g id="Group-2" transform="translate(124.000000, 3.000000)">
                <g id="Group">
                    <rect id="Rectangle-7" fill="#FFFFFF" x="0" y="0" width="32" height="157"></rect>
                    <path d="M0,0 L32,0 L32,157 L0,157 L0,0 Z M16.5,145.604839 C20.6421356,145.604839 24,141.353349 24,136.108871 C24,130.864393 20.6421356,126.612903 16.5,126.612903 C12.3578644,126.612903 9,130.864393 9,136.108871 C9,141.353349 12.3578644,145.604839 16.5,145.604839 Z M4,6.33064516 L4,116.483871 L28,116.483871 L28,6.33064516 L4,6.33064516 Z" id="Combined-Shape" fill="#E8C48F"></path>
                </g>
                <text id="name" transform="translate(15.500000, 60.141129) rotate(-90.000000) translate(-15.500000, -60.141129) " font-family="PTMono-Bold, PT Mono" font-size="16" font-weight="bold" fill="#EE6B47">
                    <tspan x="-3.7" y="62.7459677">name</tspan>
                </text>
            </g>
            <g id="Group-2-Copy" transform="translate(161.000000, 3.000000)">
                <g id="Group">
                    <rect id="Rectangle-7" fill="#FFFFFF" x="0" y="0" width="32" height="157"></rect>
                    <path d="M0,0 L32,0 L32,157 L0,157 L0,0 Z M16.5,145.604839 C20.6421356,145.604839 24,141.353349 24,136.108871 C24,130.864393 20.6421356,126.612903 16.5,126.612903 C12.3578644,126.612903 9,130.864393 9,136.108871 C9,141.353349 12.3578644,145.604839 16.5,145.604839 Z M4,6.33064516 L4,116.483871 L28,116.483871 L28,6.33064516 L4,6.33064516 Z" id="Combined-Shape" fill="#E8C48F"></path>
                </g>
                <text id="age" transform="translate(15.500000, 60.141129) rotate(-90.000000) translate(-15.500000, -60.141129) " font-family="PTMono-Bold, PT Mono" font-size="16" font-weight="bold" fill="#EE6B47">
                    <tspan x="1.1" y="62.7459677">age</tspan>
                </text>
            </g>
            <g id="Group-2-Copy-2" transform="translate(198.000000, 3.000000)">
                <g id="Group">
                    <rect id="Rectangle-7" fill="#FFFFFF" x="0" y="0" width="32" height="157"></rect>
                    <path d="M0,0 L32,0 L32,157 L0,157 L0,0 Z M16.5,145.604839 C20.6421356,145.604839 24,141.353349 24,136.108871 C24,130.864393 20.6421356,126.612903 16.5,126.612903 C12.3578644,126.612903 9,130.864393 9,136.108871 C9,141.353349 12.3578644,145.604839 16.5,145.604839 Z M4,6.33064516 L4,116.483871 L28,116.483871 L28,6.33064516 L4,6.33064516 Z" id="Combined-Shape" fill="#E8C48F"></path>
                </g>
                <text id="likes-birds" transform="translate(17.500000, 60.774194) rotate(-90.000000) translate(-17.500000, -60.774194) " font-family="PTMono-Bold, PT Mono" font-size="14" font-weight="bold" fill="#EE6B47">
                    <tspan x="-28.7" y="63.2782258">likes birds</tspan>
                </text>
            </g>
            <rect id="Rectangle-4" stroke="#BCA68E" stroke-width="4" fill="#FFF9EB" x="109" y="157" width="135" height="50"></rect>
            <rect id="Rectangle-8" stroke="#BCA68E" stroke-width="3" x="164.5" y="177.5" width="25" height="10"></rect>
            <text id="user" font-family="OpenSans-Bold, Open Sans" font-size="14" font-weight="bold" fill="#EE6B47">
                <tspan x="5" y="187">user</tspan>
            </text>
            <path id="Line-8" d="M71.5,184 L45,184 L45,181 L71.5,181 L71.5,173 L90.5,182.5 L71.5,192 L71.5,184 Z" fill="#EE6B47" fill-rule="nonzero"></path>
        </g>
    </g>
</svg>

<svg xmlns="http://www.w3.org/2000/svg" width="248" height="215" viewBox="0 0 248 215"><defs><style>@import url(https://fonts.googleapis.com/css?family=Open+Sans:bold,italic,bolditalic%7CPT+Mono);@font-face{font-family:&apos;PT Mono&apos;;font-weight:700;font-style:normal;src:local(&apos;PT MonoBold&apos;),url(/font/PTMonoBold.woff2) format(&apos;woff2&apos;),url(/font/PTMonoBold.woff) format(&apos;woff&apos;),url(/font/PTMonoBold.ttf) format(&apos;truetype&apos;)}</style></defs><g id="combined" fill="none" fill-rule="evenodd" stroke="none" stroke-width="1"><g id="object-user-props.svg"><path fill="#FFF" d="M0 0h248v215H0z"/><path id="Rectangle-4-Copy" fill="#D1C4B1" stroke="#D1C4B1" stroke-width="4" d="M127.937 143l-16.667 20h130.46l-16.667-20h-97.126z" opacity=".5"/><g id="Group-2" transform="translate(124 3)"><g id="Group"><path id="Rectangle-7" fill="#FFF" d="M0 0h32v157H0z"/><path id="Combined-Shape" fill="#E8C48F" d="M32 0v157H0V0h32zM16.5 126.613c-4.142 0-7.5 4.251-7.5 9.496 0 5.244 3.358 9.496 7.5 9.496 4.142 0 7.5-4.252 7.5-9.496 0-5.245-3.358-9.496-7.5-9.496zM28 6.33H4v110.153h24V6.33z"/></g><text id="name" fill="#EE6B47" font-family="PTMono-Bold, PT Mono" font-size="16" font-weight="bold" transform="rotate(-90 15.5 60.141)"><tspan x="-3.7" y="62.746">name</tspan></text></g><g id="Group-2-Copy" transform="translate(161 3)"><g id="Group"><path id="Rectangle-7" fill="#FFF" d="M0 0h32v157H0z"/><path id="Combined-Shape" fill="#E8C48F" d="M32 0v157H0V0h32zM16.5 126.613c-4.142 0-7.5 4.251-7.5 9.496 0 5.244 3.358 9.496 7.5 9.496 4.142 0 7.5-4.252 7.5-9.496 0-5.245-3.358-9.496-7.5-9.496zM28 6.33H4v110.153h24V6.33z"/></g><text id="age" fill="#EE6B47" font-family="PTMono-Bold, PT Mono" font-size="16" font-weight="bold" transform="rotate(-90 15.5 60.141)"><tspan x="1.1" y="62.746">age</tspan></text></g><g id="Group-2-Copy-2" transform="translate(198 3)"><g id="Group"><path id="Rectangle-7" fill="#FFF" d="M0 0h32v157H0z"/><path id="Combined-Shape" fill="#E8C48F" d="M32 0v157H0V0h32zM16.5 126.613c-4.142 0-7.5 4.251-7.5 9.496 0 5.244 3.358 9.496 7.5 9.496 4.142 0 7.5-4.252 7.5-9.496 0-5.245-3.358-9.496-7.5-9.496zM28 6.33H4v110.153h24V6.33z"/></g><text id="likes-birds" fill="#EE6B47" font-family="PTMono-Bold, PT Mono" font-size="14" font-weight="bold" transform="rotate(-90 17.5 60.774)"><tspan x="-28.7" y="63.278">likes birds</tspan></text></g><path id="Rectangle-4" fill="#FFF9EB" stroke="#BCA68E" stroke-width="4" d="M109 157h135v50H109z"/><path id="Rectangle-8" stroke="#BCA68E" stroke-width="3" d="M164.5 177.5h25v10h-25z"/><text id="user" fill="#EE6B47" font-family="OpenSans-Bold, Open Sans" font-size="14" font-weight="bold"><tspan x="5" y="187">user</tspan></text><path id="Line-8" fill="#EE6B47" fill-rule="nonzero" d="M71.5 173l19 9.5-19 9.5v-8H45v-3h26.5v-8z"/></g></g></svg>
